X: 23
T: Song of Lamentation
C: Teton Sioux band 1911-1914
N: Derived from sioux023.krn
O: South Dakota, U.S.A.
N: Teton Sioux Music by Frances Densmore, 1918
Z: transcribed to **kern format by Craig Sapp
L: 1/8
M: 2/4
Q: 1/4=58
K: Eb clef=bass
%%linebreak <none>
(3F F- F F/< C/- C [I:setbarnb 1]||  
[M:3/4](3E E- E E< C- C C ||  
[M:2/4](3F F- F F/< C/- C | 
[M:3/4](3E C- C E< G,-G,2 | 
G,< F, E, C,C,2 ||  
[M:2/4]F, E,- E, F,/ E,/ | 
C,3C, | 
C,4 | 
C,2C F3// F// ||  
[M:3/4]F> EC2(3F F E | 
C> B,G,2G, (B,// G,3//) ||  
[M:2/4]F, (G,/ F,/)E,2 | 
G,/ F,/ E, F, E, | 
C,3C, | 
C,4 |]  



